X: 1
T:The Ingleneuk  "1998.3"
M:6/8
L:1/8
Q:80
C:William Bryson
S:Jig
K:HP
|: c|
{Gdc}d3{gcd}c2d|
{g}B{d}B{e}B{g}def|
{g}ea{g}a{cd}c2B|  !
{g}c{d}A{e}A{g}edc|
{Gdc}d3{gcd}c2d|
{g}B{d}B{e}B{g}def|  !
{g}eaf{g}ec{d}A|
{g}cB{G}B{gBd}B2:| |:
a|  !
{fg}f2B{g}c{d}c{e}c|
{g}B{d}B{e}B{g}dfd|
{gef}e2A{g}c{d}c{e}c|  !
{g}A{d}A{e}A{g}edc|
{gfg}f2B{g}c{d}c{e}c|
{g}B{d}B{e}B{g}def|  !
{g}eaf{g}ec{d}A|
{g}cB{G}B{gBd}B2:|
